Newaita-dark/actions/32/view-certificate-import.svg

<svg height="32" viewBox="0 0 32 32" width="32" xmlns="http://www.w3.org/2000/svg"><g fill="#e0e0e0"><path d="m5.292969 5.542969c-1.464844 0-2.648438 1.179687-2.648438 2.644531v15.878906c0 1.464844 1.183594 2.644532 2.648438 2.644532h7.9375v-2.644532h-6.617188c-.730469 0-1.320312-.589844-1.320312-1.324218v-13.230469c0-.734375.589843-1.324219 1.320312-1.324219h18.523438c.734375 0 1.324219.589844 1.324219 1.324219v9.921875h2.644531v-11.246094c0-1.464844-1.179688-2.644531-2.644531-2.644531zm0 0"/><path d="m11.851562 11.496094c-1.433593 0-2.589843 1.179687-2.589843 2.644531v1.984375c-.734375 0-1.324219.589844-1.324219 1.324219v1.984375c0 .734375.589844 1.324218 1.324219 1.324218h5.292969c.730468 0 1.320312-.589843 1.320312-1.324218v-1.984375c0-.734375-.589844-1.324219-1.320312-1.324219v-1.984375c0-1.464844-1.15625-2.644531-2.59375-2.644531zm.054688 1.324218c.734375 0 1.324219.589844 1.324219 1.320313v1.984375h-2.644531v-1.984375c0-.730469.589843-1.320313 1.320312-1.320313zm0 0"/><path d="m16.207031 10.835938h7.277344c.183594 0 .332031.148437.332031.328124v.664063c0 .179687-.148437.328125-.332031.328125h-7.277344c-.183593 0-.332031-.148438-.332031-.328125v-.664063c0-.179687.148438-.328124.332031-.328124zm0 0"/><path d="m18.851562 14.804688h4.632813c.183594 0 .332031.148437.332031.328124v.664063c0 .179687-.148437.328125-.332031.328125h-4.632813c-.179687 0-.328124-.148438-.328124-.328125v-.664063c0-.179687.148437-.328124.328124-.328124zm0 0"/><path d="m20.457031 22.082031v2.644531h7.988281c.367188 0 .660157-.296874.660157-.660156v-1.324218c0-.367188-.292969-.660157-.660157-.660157zm0 0"/><path d="m21.121094 26.710938v-6.617188l-5.292969 3.308594zm0 0"/></g></svg>

<svg xmlns="http://www.w3.org/2000/svg" xmlns:xlink="http://www.w3.org/1999/xlink" width="32px" height="32px" viewBox="0 0 32 32" version="1.1">
<g id="surface1">
     <defs>
  <style id="current-color-scheme" type="text/css">
   .ColorScheme-Text { color:#eeeeee; } .ColorScheme-Highlight { color:#424242; }
  </style>
 </defs>
<path style="fill:currentColor" class="ColorScheme-Text" d="M 5.292969 5.542969 C 3.828125 5.542969 2.644531 6.722656 2.644531 8.1875 L 2.644531 24.066406 C 2.644531 25.53125 3.828125 26.710938 5.292969 26.710938 L 13.230469 26.710938 L 13.230469 24.066406 L 6.613281 24.066406 C 5.882812 24.066406 5.292969 23.476562 5.292969 22.742188 L 5.292969 9.511719 C 5.292969 8.777344 5.882812 8.1875 6.613281 8.1875 L 25.136719 8.1875 C 25.871094 8.1875 26.460938 8.777344 26.460938 9.511719 L 26.460938 19.433594 L 29.105469 19.433594 L 29.105469 8.1875 C 29.105469 6.722656 27.925781 5.542969 26.460938 5.542969 Z M 5.292969 5.542969 "/>
     <defs>
  <style id="current-color-scheme" type="text/css">
   .ColorScheme-Text { color:#eeeeee; } .ColorScheme-Highlight { color:#424242; }
  </style>
 </defs>
<path style="fill:currentColor" class="ColorScheme-Text" d="M 11.851562 11.496094 C 10.417969 11.496094 9.261719 12.675781 9.261719 14.140625 L 9.261719 16.125 C 8.527344 16.125 7.9375 16.714844 7.9375 17.449219 L 7.9375 19.433594 C 7.9375 20.167969 8.527344 20.757812 9.261719 20.757812 L 14.554688 20.757812 C 15.285156 20.757812 15.875 20.167969 15.875 19.433594 L 15.875 17.449219 C 15.875 16.714844 15.285156 16.125 14.554688 16.125 L 14.554688 14.140625 C 14.554688 12.675781 13.398438 11.496094 11.960938 11.496094 Z M 11.90625 12.820312 C 12.640625 12.820312 13.230469 13.410156 13.230469 14.140625 L 13.230469 16.125 L 10.585938 16.125 L 10.585938 14.140625 C 10.585938 13.410156 11.175781 12.820312 11.90625 12.820312 Z M 11.90625 12.820312 "/>
     <defs>
  <style id="current-color-scheme" type="text/css">
   .ColorScheme-Text { color:#eeeeee; } .ColorScheme-Highlight { color:#424242; }
  </style>
 </defs>
<path style="fill:currentColor" class="ColorScheme-Text" d="M 16.207031 10.835938 L 23.484375 10.835938 C 23.667969 10.835938 23.816406 10.984375 23.816406 11.164062 L 23.816406 11.828125 C 23.816406 12.007812 23.667969 12.15625 23.484375 12.15625 L 16.207031 12.15625 C 16.023438 12.15625 15.875 12.007812 15.875 11.828125 L 15.875 11.164062 C 15.875 10.984375 16.023438 10.835938 16.207031 10.835938 Z M 16.207031 10.835938 "/>
     <defs>
  <style id="current-color-scheme" type="text/css">
   .ColorScheme-Text { color:#eeeeee; } .ColorScheme-Highlight { color:#424242; }
  </style>
 </defs>
<path style="fill:currentColor" class="ColorScheme-Text" d="M 18.851562 14.804688 L 23.484375 14.804688 C 23.667969 14.804688 23.816406 14.953125 23.816406 15.132812 L 23.816406 15.796875 C 23.816406 15.976562 23.667969 16.125 23.484375 16.125 L 18.851562 16.125 C 18.671875 16.125 18.523438 15.976562 18.523438 15.796875 L 18.523438 15.132812 C 18.523438 14.953125 18.671875 14.804688 18.851562 14.804688 Z M 18.851562 14.804688 "/>
     <defs>
  <style id="current-color-scheme" type="text/css">
   .ColorScheme-Text { color:#eeeeee; } .ColorScheme-Highlight { color:#424242; }
  </style>
 </defs>
<path style="fill:currentColor" class="ColorScheme-Text" d="M 20.457031 22.082031 L 20.457031 24.726562 L 28.445312 24.726562 C 28.8125 24.726562 29.105469 24.429688 29.105469 24.066406 L 29.105469 22.742188 C 29.105469 22.375 28.8125 22.082031 28.445312 22.082031 Z M 20.457031 22.082031 "/>
     <defs>
  <style id="current-color-scheme" type="text/css">
   .ColorScheme-Text { color:#eeeeee; } .ColorScheme-Highlight { color:#424242; }
  </style>
 </defs>
<path style="fill:currentColor" class="ColorScheme-Text" d="M 21.121094 26.710938 L 21.121094 20.09375 L 15.828125 23.402344 Z M 21.121094 26.710938 "/>
</g>
</svg>
